X:1
T:Title
%%score 1 2 3
L:1/8
Q:1/4=180
M:6/4
K:G
V:1 treble nm="Grand Piano"
V:2 bass nm="Clav., Melody"
V:3 bass nm="Grand Piano"
V:1
 G4 A2 B4 B2 | d4 d2 d6 | g2 f2 e2 e2 f2 g2 | d6 d6 | G4 A2 B4 B2 | d4 d2 d6 | g2 f2 e2 e2 f2 g2 | %7
 d6 d6 | z6 B4 A2 | G4 F2 A4 c2 | d6 d4 g2 | e4 B2 A4 A2 | d6 d4 c2 | B4 e2 d4 d2 | d6 g2 f2 e2 | %15
 e2 f2 g2 d4 B2 | d12 |] %17
V:2
 G,4 A,2 B,2 A,2 G,2 | B,4[K:treble] D2 G6 | E2 D2 B,2 E2 D2[K:bass] B,2 | A,6 G,6 | %4
 G,4 A,2 B,2 A,2 G,2 | B,4[K:treble] D2 G6 | E2 D2 B,2[K:bass] E2 D2 B,2 | A,6 G,6 | %8
 z6[K:treble] G4 F2 | E4 A2 F4 E2 | D6 D4 C2 | B,4 D2 E4 F2 | G6[K:bass] G,4 A,2 | %13
 B,2 A,2 G,2 B,4[K:treble] D2 | G6 E2 D2 B,2 | E2[K:bass] D2 B,2 A,4 B,2 | G,12 |] %17
V:3
 G,4 D,2 E,4 E,2 | G,4 G,2 G,6 | B,4 B,2 A,4 [B,,G,]2 | D,6 [G,,G,]6 | G,4 D,2 E,4 E,2 | %5
 G,4 G,2 G,6 | B,4 B,2 A,4 [B,,G,]2 | D,6 [G,,G,]6 | z6 G,4 A,2 | B,4 F,2 A,4 A,2 | D,6 D,4 B,,2 | %11
 E,4 G,2 A,4 D,2 | G,6 G,4 D,2 | E,4 E,2 G,4 G,2 | G,6 B,4 B,2 | A,4 G,2 D,4 D,2 | [G,,G,]12 |] %17

